assets/aboutus/Group 101.svg

<svg width="820" height="722" viewBox="0 0 820 722" fill="none" xmlns="http://www.w3.org/2000/svg">
<path d="M387 521L430 521C540.457 521 630 431.457 630 321L630 205C630 94.543 719.543 4.99999 830 4.99998L896 4.99998" stroke="url(#paint0_linear_80_17)" stroke-width="10"/>
<g clip-path="url(#clip0_80_17)">
<path d="M200.005 722.002C310.462 722.002 400.005 632.458 400.005 522.001C400.005 411.545 310.462 322.001 200.005 322.001C89.5473 322.001 0.00390625 411.545 0.00390625 522.001C0.00390625 632.458 89.5473 722.002 200.005 722.002Z" fill="url(#paint1_linear_80_17)"/>
<path fill-rule="evenodd" clip-rule="evenodd" d="M80.003 643.331V601.331C80.003 598.572 77.7629 596.331 75.0029 596.331C72.2429 596.331 70.0029 598.572 70.0029 601.331V643.331C70.0029 646.091 72.2429 648.331 75.0029 648.331C77.7629 648.331 80.003 646.091 80.003 643.331Z" fill="url(#paint2_linear_80_17)"/>
<path fill-rule="evenodd" clip-rule="evenodd" d="M142.51 643.331V513.331C142.51 510.572 140.27 508.331 137.51 508.331C134.75 508.331 132.51 510.572 132.51 513.331V643.331C132.51 646.091 134.75 648.331 137.51 648.331C140.27 648.331 142.51 646.091 142.51 643.331Z" fill="url(#paint3_linear_80_17)"/>
<path fill-rule="evenodd" clip-rule="evenodd" d="M205.006 643.331V483.331C205.006 480.572 202.766 478.331 200.006 478.331C197.246 478.331 195.006 480.572 195.006 483.331V643.331C195.006 646.091 197.246 648.331 200.006 648.331C202.766 648.331 205.006 646.091 205.006 643.331Z" fill="url(#paint4_linear_80_17)"/>
<path fill-rule="evenodd" clip-rule="evenodd" d="M267.503 643.331V528.331C267.503 525.572 265.263 523.331 262.503 523.331C259.743 523.331 257.503 525.572 257.503 528.331V643.331C257.503 646.091 259.743 648.331 262.503 648.331C265.263 648.331 267.503 646.091 267.503 643.331Z" fill="url(#paint5_linear_80_17)"/>
<path fill-rule="evenodd" clip-rule="evenodd" d="M330.01 646.331V513.331C330.01 510.572 327.77 508.331 325.01 508.331C322.25 508.331 320.01 510.572 320.01 513.331V646.331C320.01 649.091 322.25 651.331 325.01 651.331C327.77 651.331 330.01 649.091 330.01 646.331Z" fill="url(#paint6_linear_80_17)"/>
<path fill-rule="evenodd" clip-rule="evenodd" d="M70.0059 620.002H92.4099C103.622 620.002 114.32 615.296 121.896 607.031C127.448 600.975 134.268 593.534 140.832 586.373C154.551 571.407 177.384 569.285 193.626 581.467L193.627 581.468C209.337 593.25 231.32 591.688 245.206 577.802C250.112 572.896 255.059 567.949 259.29 563.718C266.792 556.216 276.966 552.002 287.575 552.002H330.006V646.331H70.0059V620.002Z" fill="url(#paint7_linear_80_17)"/>
<path fill-rule="evenodd" clip-rule="evenodd" d="M5.00587 652.001H325.007C327.767 652.001 330.007 649.761 330.007 647.001C330.007 644.242 327.767 642.001 325.007 642.001H5.00587C2.24586 642.001 0.00585938 644.242 0.00585938 647.001C0.00585938 649.761 2.24586 652.001 5.00587 652.001Z" fill="url(#paint8_linear_80_17)"/>
<path fill-rule="evenodd" clip-rule="evenodd" d="M75.0059 625.002H92.4099C105.024 625.002 117.058 619.708 125.582 610.41C131.133 604.353 137.954 596.913 144.518 589.752C156.499 576.681 176.441 574.828 190.626 585.467L190.627 585.468C208.328 598.743 233.096 596.983 248.741 581.338C253.647 576.432 258.594 571.485 262.826 567.253C269.39 560.69 278.292 557.002 287.574 557.002C287.575 557.002 350.007 557.002 350.007 557.002C352.767 557.002 355.007 554.762 355.007 552.002C355.007 549.242 352.767 547.002 350.007 547.002C350.007 547.002 310.741 547.002 287.575 547.002C275.64 547.002 264.194 551.743 255.755 560.182C251.523 564.414 246.576 569.361 241.67 574.267C229.544 586.393 210.346 587.757 196.627 577.468L196.626 577.467C178.327 563.743 152.603 566.133 137.146 582.995C130.582 590.156 123.762 597.596 118.21 603.652C111.581 610.884 102.221 615.002 92.4099 615.002H75.0059C72.2459 615.002 70.0059 617.242 70.0059 620.002C70.0059 622.762 72.2459 625.002 75.0059 625.002Z" fill="url(#paint9_linear_80_17)"/>
<path fill-rule="evenodd" clip-rule="evenodd" d="M105.006 434.002H146.006C148.766 434.002 151.006 431.762 151.006 429.002C151.006 426.242 148.766 424.002 146.006 424.002H105.006C102.246 424.002 100.006 426.242 100.006 429.002C100.006 431.762 102.246 434.002 105.006 434.002Z" fill="white"/>
<path fill-rule="evenodd" clip-rule="evenodd" d="M105.003 465.167H131.003C133.763 465.167 136.003 462.927 136.003 460.167C136.003 457.407 133.763 455.167 131.003 455.167H105.003C102.243 455.167 100.002 457.407 100.002 460.167C100.002 462.927 102.243 465.167 105.003 465.167Z" fill="white"/>
<path d="M80.0075 439.004C85.5302 439.004 90.0073 434.527 90.0073 429.005C90.0073 423.482 85.5302 419.005 80.0075 419.005C74.4848 419.005 70.0078 423.482 70.0078 429.005C70.0078 434.527 74.4848 439.004 80.0075 439.004Z" fill="white"/>
<path d="M80.0075 470.168C85.5302 470.168 90.0073 465.691 90.0073 460.169C90.0073 454.646 85.5302 450.169 80.0075 450.169C74.4848 450.169 70.0078 454.646 70.0078 460.169C70.0078 465.691 74.4848 470.168 80.0075 470.168Z" fill="white"/>
<path fill-rule="evenodd" clip-rule="evenodd" d="M340.012 312.001C301.378 312.001 270.012 343.368 270.012 382.002C270.012 420.636 301.378 452.002 340.012 452.002C378.646 452.002 410.013 420.636 410.013 382.002C410.013 343.368 378.646 312.001 340.012 312.001ZM340.012 322.002C373.127 322.002 400.012 348.887 400.012 382.002C400.012 415.117 373.127 442.002 340.012 442.002C306.897 442.002 280.012 415.117 280.012 382.002C280.012 348.887 306.897 322.002 340.012 322.002Z" fill="#151515"/>
<path d="M340.012 442.002C373.149 442.002 400.012 415.139 400.012 382.002C400.012 348.865 373.149 322.002 340.012 322.002C306.875 322.002 280.012 348.865 280.012 382.002C280.012 415.139 306.875 442.002 340.012 442.002Z" fill="#151515"/>
<path fill-rule="evenodd" clip-rule="evenodd" d="M340.012 322C373.127 322 400.013 348.885 400.013 382C400.013 415.115 373.127 442 340.012 442C306.897 442 280.012 415.115 280.012 382C280.012 348.885 306.897 322 340.012 322ZM340.012 332C367.608 332 390.012 354.404 390.012 382C390.012 409.595 367.608 431.999 340.012 431.999C312.417 431.999 290.013 409.595 290.013 382C290.013 354.404 312.417 332 340.012 332Z" fill="url(#paint10_linear_80_17)"/>
<path fill-rule="evenodd" clip-rule="evenodd" d="M311.214 385.536L328.056 402.377C330.009 404.329 333.175 404.329 335.128 402.377L368.811 368.694C370.762 366.742 370.762 363.574 368.811 361.622C366.859 359.671 363.691 359.671 361.739 361.622L331.592 391.771L318.286 378.464C316.334 376.513 313.166 376.513 311.214 378.464C309.263 380.416 309.263 383.584 311.214 385.536Z" fill="url(#paint11_linear_80_17)"/>
<path fill-rule="evenodd" clip-rule="evenodd" d="M0.000976563 636.738L0.000976563 647.002C0.000976563 649.763 2.24 652.002 5.00147 652.002H110.079C112.838 652.002 115.078 649.762 115.078 647.002C115.078 644.242 112.838 642.002 110.079 642.002H10.002V636.738C10.002 633.978 7.76147 631.738 5.00147 631.738C2.24146 631.738 0.000976563 633.978 0.000976563 636.738Z" fill="white"/>
<path fill-rule="evenodd" clip-rule="evenodd" d="M30.0029 574.396V610.395C30.0029 613.155 32.2429 615.396 35.0029 615.396C37.7629 615.396 40.003 613.155 40.003 610.395V574.396C40.003 571.636 37.7629 569.396 35.0029 569.396C32.2429 569.396 30.0029 571.636 30.0029 574.396Z" fill="white"/>
<path fill-rule="evenodd" clip-rule="evenodd" d="M16.3889 610.408L31.4486 625.467C33.4018 627.419 36.5674 627.419 38.5206 625.467L53.6148 610.372C55.5666 608.421 55.5666 605.253 53.6148 603.301C51.6631 601.349 48.4946 601.349 46.5444 603.301L34.9846 614.861L23.461 603.336C21.5093 601.386 18.3407 601.386 16.3889 603.336C14.4387 605.287 14.4387 608.456 16.3889 610.408Z" fill="white"/>
</g>
<defs>
<linearGradient id="paint0_linear_80_17" x1="1034.01" y1="-272.99" x2="264.01" y2="521.009" gradientUnits="userSpaceOnUse">
<stop stop-color="#D5207D"/>
<stop offset="0.28315" stop-color="#1F1F1F"/>
<stop offset="1" stop-color="#7E67FD"/>
</linearGradient>
<linearGradient id="paint1_linear_80_17" x1="70.3055" y1="369.802" x2="350.323" y2="653.873" gradientUnits="userSpaceOnUse">
<stop stop-color="#FF0CF5"/>
<stop offset="1" stop-color="#0575E6"/>
</linearGradient>
<linearGradient id="paint2_linear_80_17" x1="53.0029" y1="511.002" x2="111.003" y2="628.002" gradientUnits="userSpaceOnUse">
<stop stop-color="#3AA0FE"/>
<stop offset="1" stop-color="#59FEF4"/>
</linearGradient>
<linearGradient id="paint3_linear_80_17" x1="115.51" y1="511.002" x2="173.51" y2="628.002" gradientUnits="userSpaceOnUse">
<stop stop-color="#3AA0FE"/>
<stop offset="1" stop-color="#59FEF4"/>
</linearGradient>
<linearGradient id="paint4_linear_80_17" x1="178.006" y1="511.002" x2="236.006" y2="628.002" gradientUnits="userSpaceOnUse">
<stop stop-color="#3AA0FE"/>
<stop offset="1" stop-color="#59FEF4"/>
</linearGradient>
<linearGradient id="paint5_linear_80_17" x1="240.503" y1="511.002" x2="298.503" y2="628.002" gradientUnits="userSpaceOnUse">
<stop stop-color="#3AA0FE"/>
<stop offset="1" stop-color="#59FEF4"/>
</linearGradient>
<linearGradient id="paint6_linear_80_17" x1="303.01" y1="511.002" x2="361.01" y2="628.002" gradientUnits="userSpaceOnUse">
<stop stop-color="#3AA0FE"/>
<stop offset="1" stop-color="#59FEF4"/>
</linearGradient>
<linearGradient id="paint7_linear_80_17" x1="180.006" y1="564.831" x2="180.006" y2="653.873" gradientUnits="userSpaceOnUse">
<stop stop-color="#36FF78" stop-opacity="0.8"/>
<stop offset="1" stop-color="#0CFFFF" stop-opacity="0.15"/>
</linearGradient>
<linearGradient id="paint8_linear_80_17" x1="0.00585938" y1="647.001" x2="313.007" y2="647.001" gradientUnits="userSpaceOnUse">
<stop stop-color="#3AA0FE"/>
<stop offset="1" stop-color="#59FEF4"/>
</linearGradient>
<linearGradient id="paint9_linear_80_17" x1="86.0059" y1="572.002" x2="285.006" y2="603.002" gradientUnits="userSpaceOnUse">
<stop stop-color="#36FF78"/>
<stop offset="1" stop-color="#0CFFFF"/>
</linearGradient>
<linearGradient id="paint10_linear_80_17" x1="280.012" y1="382" x2="400.013" y2="382" gradientUnits="userSpaceOnUse">
<stop stop-color="#36FF78"/>
<stop offset="1" stop-color="#0CFFFF"/>
</linearGradient>
<linearGradient id="paint11_linear_80_17" x1="310.012" y1="387" x2="365.012" y2="402" gradientUnits="userSpaceOnUse">
<stop stop-color="#36FF78"/>
<stop offset="1" stop-color="#0CFFFF"/>
</linearGradient>
<clipPath id="clip0_80_17">
<rect width="410" height="410" fill="white" transform="translate(0 312)"/>
</clipPath>
</defs>
</svg>

<svg xmlns="http://www.w3.org/2000/svg" xmlns:xlink="http://www.w3.org/1999/xlink" width="820" height="722" fill="none" xmlns:v="https://vecta.io/nano"><path d="M387 521L430 521C540.457 521 630 431.457 630 321L630 205C630 94.543 719.543 4.99999 830 4.99998L896 4.99998" stroke="url(#A)" stroke-width="10"/><g clip-path="url(#M)"><path d="M200.005 722.002c110.457 0 200-89.544 200-200.001s-89.543-200-200-200S.004 411.545.004 522.001s89.543 200.001 200.001 200.001z" fill="url(#B)"/><g fill-rule="evenodd"><path d="M80.003 643.331v-42c0-2.759-2.24-5-5-5s-5 2.241-5 5v42c0 2.76 2.24 5 5 5s5-2.24 5-5z" fill="url(#C)"/><path d="M142.51 643.331v-130c0-2.759-2.24-5-5-5s-5 2.241-5 5v130c0 2.76 2.24 5 5 5s5-2.24 5-5z" fill="url(#D)"/><path d="M205.006 643.331v-160c0-2.759-2.24-5-5-5s-5 2.241-5 5v160c0 2.76 2.24 5 5 5s5-2.24 5-5z" fill="url(#E)"/><path d="M267.503 643.331v-115c0-2.759-2.24-5-5-5s-5 2.241-5 5v115c0 2.76 2.24 5 5 5s5-2.24 5-5z" fill="url(#F)"/><path d="M330.01 646.331v-133c0-2.759-2.24-5-5-5s-5 2.241-5 5v133c0 2.76 2.24 5 5 5s5-2.24 5-5z" fill="url(#G)"/><path d="M70.006 620.002H92.41a40 40 0 0 0 29.486-12.971l18.936-20.658c13.719-14.966 36.552-17.088 52.794-4.906l.001.001c15.71 11.782 37.693 10.22 51.579-3.666l14.084-14.084a40 40 0 0 1 28.285-11.716h42.431v94.329h-260v-26.329z" fill="url(#H)"/><path d="M5.006 652.001h320.001c2.76 0 5-2.24 5-5s-2.24-5-5-5H5.006c-2.76 0-5 2.241-5 5s2.24 5 5 5z" fill="url(#I)"/><path d="M75.006 625.002H92.41a45 45 0 0 0 33.172-14.592l18.936-20.658c11.981-13.071 31.923-14.924 46.108-4.285l.001.001c17.701 13.275 42.469 11.515 58.114-4.13l14.085-14.085c6.564-6.563 15.466-10.251 24.748-10.251h62.433c2.76 0 5-2.24 5-5s-2.24-5-5-5h-62.432a45 45 0 0 0-31.82 13.18l-14.085 14.085c-12.126 12.126-31.324 13.49-45.043 3.201l-.001-.001c-18.299-13.724-44.023-11.334-59.48 5.528l-18.936 20.657a35 35 0 0 1-25.8 11.35H75.006c-2.76 0-5 2.24-5 5s2.24 5 5 5z" fill="url(#J)"/><g fill="#fff"><path d="M105.006 434.002h41c2.76 0 5-2.24 5-5s-2.24-5-5-5h-41c-2.76 0-5 2.24-5 5s2.24 5 5 5zm-.003 31.165h26c2.76 0 5-2.24 5-5s-2.24-5-5-5h-26c-2.76 0-5.001 2.24-5.001 5s2.241 5 5.001 5z"/></g></g><path d="M80.008 439.004a10 10 0 0 0 0-19.999 10 10 0 0 0 0 19.999zm0 31.164a10 10 0 0 0 0-19.999 10 10 0 0 0 0 19.999z" fill="#fff"/><g fill="#151515"><path fill-rule="evenodd" d="M340.012 312.001c-38.634 0-70 31.367-70 70.001s31.366 70 70 70 70.001-31.366 70.001-70-31.367-70.001-70.001-70.001zm0 10.001c33.115 0 60 26.885 60 60s-26.885 60-60 60-60-26.885-60-60 26.885-60 60-60z"/><path d="M340.012 442.002c33.137 0 60-26.863 60-60s-26.863-60-60-60-60 26.863-60 60 26.863 60 60 60z"/></g><g fill-rule="evenodd"><path d="M340.012 322c33.115 0 60.001 26.885 60.001 60s-26.886 60-60.001 60-60-26.885-60-60 26.885-60 60-60zm0 10c27.596 0 50 22.404 50 50s-22.404 49.999-50 49.999-49.999-22.404-49.999-49.999 22.404-50 49.999-50z" fill="url(#K)"/><path d="M311.214 385.536l16.842 16.841c1.953 1.952 5.119 1.952 7.072 0l33.683-33.683c1.951-1.952 1.951-5.12 0-7.072s-5.12-1.951-7.072 0l-30.147 30.149-13.306-13.307c-1.952-1.951-5.12-1.951-7.072 0s-1.951 5.12 0 7.072z" fill="url(#L)"/><g fill="#fff"><path d="M.001 636.738v10.264a5 5 0 0 0 5 5h105.078c2.759 0 4.999-2.24 4.999-5s-2.24-5-4.999-5H10.002v-5.264c0-2.76-2.241-5-5.001-5s-5 2.24-5 5zm30.002-62.342v35.999c0 2.76 2.24 5.001 5 5.001s5-2.241 5-5.001v-35.999c0-2.76-2.24-5-5-5s-5 2.24-5 5z"/><path d="M16.389 610.408l15.06 15.059c1.953 1.952 5.119 1.952 7.072 0l15.094-15.095c1.952-1.951 1.952-5.119 0-7.071a5 5 0 0 0-7.07 0l-11.56 11.56-11.524-11.525a5.01 5.01 0 0 0-7.072 0c-1.95 1.951-1.95 5.12 0 7.072z"/></g></g></g><defs><linearGradient id="A" x1="1034.01" y1="-272.99" x2="264.01" y2="521.009" xlink:href="#N"><stop stop-color="#d5207d"/><stop offset=".283" stop-color="#1f1f1f"/><stop offset="1" stop-color="#7e67fd"/></linearGradient><linearGradient id="B" x1="70.306" y1="369.802" x2="350.323" y2="653.873" xlink:href="#N"><stop stop-color="#ff0cf5"/><stop offset="1" stop-color="#0575e6"/></linearGradient><linearGradient id="C" x1="53.003" y1="511.002" x2="111.003" y2="628.002" xlink:href="#N"><stop stop-color="#3aa0fe"/><stop offset="1" stop-color="#59fef4"/></linearGradient><linearGradient id="D" x1="115.51" y1="511.002" x2="173.51" y2="628.002" xlink:href="#N"><stop stop-color="#3aa0fe"/><stop offset="1" stop-color="#59fef4"/></linearGradient><linearGradient id="E" x1="178.006" y1="511.002" x2="236.006" y2="628.002" xlink:href="#N"><stop stop-color="#3aa0fe"/><stop offset="1" stop-color="#59fef4"/></linearGradient><linearGradient id="F" x1="240.503" y1="511.002" x2="298.503" y2="628.002" xlink:href="#N"><stop stop-color="#3aa0fe"/><stop offset="1" stop-color="#59fef4"/></linearGradient><linearGradient id="G" x1="303.01" y1="511.002" x2="361.01" y2="628.002" xlink:href="#N"><stop stop-color="#3aa0fe"/><stop offset="1" stop-color="#59fef4"/></linearGradient><linearGradient id="H" x1="180.006" y1="564.831" x2="180.006" y2="653.873" xlink:href="#N"><stop stop-color="#36ff78" stop-opacity=".8"/><stop offset="1" stop-color="#0cffff" stop-opacity=".15"/></linearGradient><linearGradient id="I" x1=".006" y1="647.001" x2="313.007" y2="647.001" xlink:href="#N"><stop stop-color="#3aa0fe"/><stop offset="1" stop-color="#59fef4"/></linearGradient><linearGradient id="J" x1="86.006" y1="572.002" x2="285.006" y2="603.002" xlink:href="#N"><stop stop-color="#36ff78"/><stop offset="1" stop-color="#0cffff"/></linearGradient><linearGradient id="K" x1="280.012" y1="382" x2="400.013" y2="382" xlink:href="#N"><stop stop-color="#36ff78"/><stop offset="1" stop-color="#0cffff"/></linearGradient><linearGradient id="L" x1="310.012" y1="387" x2="365.012" y2="402" xlink:href="#N"><stop stop-color="#36ff78"/><stop offset="1" stop-color="#0cffff"/></linearGradient><clipPath id="M"><path fill="#fff" transform="translate(0 312)" d="M0 0h410v410H0z"/></clipPath><linearGradient id="N" gradientUnits="userSpaceOnUse"/></defs></svg>
